!!!COM: Music21
!!!OTL: Rumba de Veiga de Logares
!!!OMV: pezas_rumbas_rumba-de-veiga-de-logares_rumba-de-veiga-de-logares-partitura.musicxml
**kern
*I"Bagpipes
*I'Bag
*clefG^2
*k[]
*M2/4
=1
!LO:TX:a:t=Andante
*MM96
!LO:TX:a:t=[quarter]=96
4.r
16ccLL
16eeJJ
=||
8ggL
16ggL
16eeJJ
8ffL
16ffL
16ddJJ
=
8gg
4ee
16ccLL
16eeJJ
=
8ggL
16ggL
16eeJJ
8ffL
16ffL
16ddJJ
=
4.cc
16ccLL
16eeJJ
=||
8ggL
16ggL
16eeJJ
8ffL
16ffL
16ddJJ
=
8gg
4ee
16ccLL
16eeJJ
!!linebreak:original
=
8ggL
16ggL
16eeJJ
8ffL
16ffL
16ddJJ
=
4.cc
16ccLL
16ccJJ
=||
8aaL
16aaL
16ggJJ
8aaL
16aaL
16ggJJ
!!linebreak:original
=
8aa
4aa
16ggLL
16aaJJ
=
8bbL
16bbL
16aaJJ
8ggL
16ggL
16ffJJ
=
4.gg
8bb
=
8aaL
16aaL
16ggJJ
8ffL
16ffL
16eeJJ
=
8gg
4ff
8aa
=
8ggL
16ggL
16ffJJ
8eeL
16eeL
16ddJJ
=
4.ee
8bb
=
8aaL
16aaL
16ggJJ
8ffL
16ffL
16eeJJ
!!linebreak:original
=
8gg
4ff
8aa
=
8ggL
16ggL
16ffJJ
8eeL
16eeL
16ddJJ
=
4.ee
16ccLL
16ccJJ
=||
8aaL
16aaL
16ggJJ
8aaL
16aaL
16ggJJ
!!linebreak:original
=
8aa
4aa
16ggLL
16aaJJ
=
8bbL
16bbL
16aaJJ
8ggL
16ggL
16ffJJ
=
4.gg
8bb
=
8aaL
16aaL
16ggJJ
8ffL
16ffL
16eeJJ
=
8gg
4ff
8aa
=
8ggL
16ggL
16ffJJ
8eeL
16eeL
16ddJJ
=
4.ee
8bb
=
8aaL
16aaL
16ggJJ
8ffL
16ffL
16eeJJ
!!linebreak:original
=
8gg
4ff
8aa
=
8ggL
16ggL
16ffJJ
8eeL
16eeL
16ddJJ
=||
4.ee
16ccLL
16eeJJ
=||
4ee
8ggL
8cccJ
==
*-
